X:1
T:San Dimas, 10.7.10.7 D
T:San Dimas, 10.7.10.7 D
T:George Orlia Webster, 1904
T:Public Domain Courtesy of the Cyber Hymnal™
C:George Orlia Webster, 1904
Z:Public Domain
Z:Courtesy of the Cyber Hymnal™
%%score ( 1 2 ) ( 3 4 )
L:1/8
Q:1/4=95
M:6/8
K:C
V:1 treble 
V:2 treble 
V:3 bass 
V:4 bass 
V:1
 C/[CD]/ | [CE]2 [CE] [CE][CD]C | [EG]2 [EG] [EG]2 [EG]/[EG]/ | [FA]2 [FA] [Ac]2 [FA] | %4
 [EG]3- [EG]2 [EG]/[EG]/ |!<(! [Ec]2 [Fc]!<)!!>(! [Fc]2!>)! [EG]/[EG]/ | %6
 .[FA] [Ac]2 [EG]2"^riten." C/[B,D]/ | [CE] [EG]2 [B,D]2 [B,E] | C3- C2 [EG]/[EG]/ | %9
!>(! [Ec]2 [Fc]!>)! [Ec]2 [Ed]/[Ec]/ | [Fc]2 [FB] !fermata![FB]2 [FG]/[FG]/ | %11
 [Fd]2 [Fd] [Fd]2 [Fe] | [Ec]3- [Ec]2 [Ec]/[Fd]/ | [Ge]2 [Ge] [Ge]2 [Gd]/[Gc]/ | %14
 [Fd]2 [Fc] !fermata![FA]2 [Ac]/[FA]/ |"^riten." [EG] [CE]2 [B,D]2 [B,E] | [G,C]3- [G,C]2 |] %17
V:2
 C/ x/ | x5 C | x6 | x6 | x6 | x6 | x5 C/ x/ | x6 | C3- C2 x | x6 | x6 | x6 | x6 | x6 | x6 | x6 | %16
 x5 |] %17
V:3
 [C,E,]/[C,F,]/ | [C,G,]2 [C,G,] [C,G,][C,F,][C,E,] | [C,C]2 [C,C] [C,C]2 [C,C]/[C,C]/ | %3
 [F,C]2 [F,C] [F,C]2 [F,C] | [C,C]3- [C,C]2 [C,C]/[C,C]/ | [C,G,]2 [C,A,] [C,G,]2 [C,C]/[C,C]/ | %6
 [F,C] [F,C]2 [C,C]2 [E,G,]/[D,G,]/ | [C,G,] [C,G,]2 [G,,F,]2 [G,,G,] | %8
 [C,E,]3- [C,E,]2 [C,G,]/[C,G,]/ | [C,G,]2 [C,A,] [C,G,]2 [C,G,]/[C,G,]/ | %10
 [D,G,]2 [D,G,] !fermata![D,G,]2 [G,B,]/[G,B,]/ | [G,B,]2 [G,B,] [G,B,]2 [G,B,] | %12
 [C,C]3- [C,C]2 [C,C]/[C,C]/ | [C,C]2 [C,C] [C,C]2 [D,B,]/[E,C]/ | %14
 [F,A,]2 [F,A,] !fermata![F,C]2 [F,C]/[F,C]/ | [G,C] G,2 [G,,F,]2 [G,,G,] | [C,E,]3- [C,E,]2 |] %17
V:4
 x | x6 | x6 | x6 | x6 | x6 | x6 | x6 | x6 | x6 | x6 | x6 | x6 | x6 | x6 | x G,2 x3 | x5 |] %17

